icons/outline/filter-2-dollar.svg

<svg width="24" height="24" viewBox="0 0 24 24" fill="none" xmlns="http://www.w3.org/2000/svg">
<path d="M4 6H20" stroke="black" stroke-width="2" stroke-linecap="round" stroke-linejoin="round"/>
<path d="M6 12H16" stroke="black" stroke-width="2" stroke-linecap="round" stroke-linejoin="round"/>
<path d="M9 18H13" stroke="black" stroke-width="2" stroke-linecap="round" stroke-linejoin="round"/>
<path d="M21 15H19M17 21H19M19 21V22M19 21H19.5C19.8978 21 20.2794 20.842 20.5607 20.5607C20.842 20.2794 21 19.8978 21 19.5C21 19.1022 20.842 18.7206 20.5607 18.4393C20.2794 18.158 19.8978 18 19.5 18H18.5C18.1022 18 17.7206 17.842 17.4393 17.5607C17.158 17.2794 17 16.8978 17 16.5C17 16.1022 17.158 15.7206 17.4393 15.4393C17.7206 15.158 18.1022 15 18.5 15H19M19 14V15" stroke="black" stroke-width="2" stroke-linecap="round" stroke-linejoin="round"/>
</svg>

<!--
category: Sytem
-->
<svg
  xmlns="http://www.w3.org/2000/svg"
  width="24"
  height="24"
  viewBox="0 0 24 24"
  fill="none"
  stroke="currentColor"
  stroke-width="2"
  stroke-linecap="round"
  stroke-linejoin="round"
>
  <path d="M4 6h16" stroke="black" stroke-width="2" stroke-linecap="round" stroke-linejoin="round" />
  <path d="M6 12h10" stroke="black" stroke-width="2" stroke-linecap="round" stroke-linejoin="round" />
  <path d="M9 18h4" stroke="black" stroke-width="2" stroke-linecap="round" stroke-linejoin="round" />
  <path d="M21 15h-2m-2 6h2m0 0v1m0 -1h.5c.398 0 .779 -.158 1.061 -.439c.281 -.281 .439 -.663 .439 -1.061c0 -.398 -.158 -.779 -.439 -1.061c-.281 -.281 -.663 -.439 -1.061 -.439h-1c-.398 0 -.779 -.158 -1.061 -.439c-.281 -.281 -.439 -.663 -.439 -1.061c0 -.398 .158 -.779 .439 -1.061c.281 -.281 .663 -.439 1.061 -.439h.5m0 -1v1" stroke="black" stroke-width="2" stroke-linecap="round" stroke-linejoin="round" />
</svg>
